X:1
T: Country Dance
N:
C:
S:Play  3  times plus Coda to end
A:
O:
R:
M:4/4
K:D
I:speed 200
%W: A1
% voice 1 (1 lines, 30 notes)
K:D
M:4/4
L:1/16
g4 |f4 d4 d4 e2 f2 |g4 d4 d4 g4 |f4 d4 d4 e2 f2 |g12 g4 |f4 d4 d4 e2 f2 |g4 d4 d4 c4 |B8 A8 |G12 g4 |
%W: A2
% voice 1 (1 lines, 30 notes)
f4 d4 d4 e2 f2 |g4 d4 d4 g4 |f4 d4 d4 e2 f2 |g12 g4 |f4 d4 d4 e2 f2 |g4 d4 d4 c4 |B8 A8 |G12 B2 c2 |
%W: B1
% voice 1 (1 lines, 29 notes)
d6 A2 A4 B4 |c6 c2 c4 B4 |e6 e2 e4 g4 |^d8 B8 |g6 g2 g4 e4 |a6 a2 b4 e4 |a4 g2 f2 f6 e2 |e8 g8 |
%W:
% voice 1 (1 lines, 26 notes)
B6 c2 d8 |d8 e4 d4 |e4 d4 c4 B4 |A8 B4 c4 |d4 d4 g4 a4 |f6 e2 d4 c4 |B8 A8 |G12 B2 c2 |
%W: B2
% voice 1 (1 lines, 29 notes)
d6 A2 A4 B4 |c6 c2 c4 B4 |e6 e2 e4 g4 |^d8 B8 |g6 g2 g4 e4 |a6 a2 b4 e4 |a4 g2 f2 f6 e2 |e8 g8 |
%W:
% voice 1 (1 lines, 24 notes)
B6 c2 d8 |d8 e4 d4 |e4 d4 c4 B4 |A8 B4 c4 |d4 d4 g4 a4 |f6 e2 d4 c4 |B8 A8 |G12 ||
%W: CODA
% voice 1 (1 lines, 29 notes)
g4 |f4 d4 d4 e2 f2 |g4 d4 d4 g4 |f4 d4 d4 e2 f2 |g12 g4 |f4 d4 d4 e2 f2 |g4 d4 d4 c4 |B8 A8 |G12 ||
